src/dsmComponents/Icons/minimise-16px.svg

<svg width="16" height="16" xmlns="http://www.w3.org/2000/svg" xmlns:xlink="http://www.w3.org/1999/xlink"><defs><path d="M7.4 8.6v7h-2V12l-4 4L0 14.6l4-4H.4v-2h7zM14.6 0L16 1.4l-4 4h3.6v2h-7v-7h2V4l4-4z" id="minimise-16px_svg__a"/></defs><use fill="#737373" xlink:href="#minimise-16px_svg__a" fill-rule="evenodd"/></svg>

<?xml version="1.0" encoding="UTF-8"?>
<svg width="16px" height="16px" viewBox="0 0 16 16" version="1.1" xmlns="http://www.w3.org/2000/svg" xmlns:xlink="http://www.w3.org/1999/xlink">
    <!-- Generator: Sketch 59.1 (86144) - https://sketch.com -->
    <title>minimise-16px</title>
    <desc>Created with Sketch.</desc>
    <defs>
        <path d="M7.4,8.6 L7.4,15.6 L5.4,15.6 L5.4,12 L1.4,16 L-8.8817842e-16,14.6 L4,10.6 L0.4,10.6 L0.4,8.6 L7.4,8.6 Z M14.6,0 L16,1.4 L12,5.4 L15.6,5.4 L15.6,7.4 L8.6,7.4 L8.6,0.4 L10.6,0.4 L10.6,4 L14.6,0 Z" id="path-1"></path>
    </defs>
    <g id="Final" stroke="none" stroke-width="1" fill="none" fill-rule="evenodd">
        <g id="All-Nucleo-Icons" transform="translate(-319.000000, -5020.000000)">
            <g id="Solo/Nucleo/16px/minimise" transform="translate(315.000000, 5016.000000)">
                <g id="minimise-double-74" transform="translate(4.000000, 4.000000)">
                    <g id="Colour/Default-Colour">
                        <mask id="mask-2" fill="white">
                            <use xlink:href="#path-1"></use>
                        </mask>
                        <g id="Mask" fill-rule="nonzero"></g>
                        <g id="colour/neutral/chia" mask="url(#mask-2)" fill="#737373">
                            <g transform="translate(-24.000000, -24.000000)" id="Colour">
                                <rect x="0" y="0" width="64" height="64"></rect>
                            </g>
                        </g>
                    </g>
                </g>
            </g>
        </g>
    </g>
</svg>
